X:56
T:Fruit of the Vine* (r)
B:NFID.104c ("untitled reel")
056fruit
S:SD
N:Note that only Part 2 repeats.
L:1/8
M:C
R:reel
Q:360
K:Em
BAFD E2EE|E2BE FBEB|BAFD E2EG|FD (3DDD ADFA|
BAFD E2EE|E2BE FBE2|BAFD E2EG|FDD2 ADFA||
^cdeg faec|d2Ad BEE2|d2eg fae^c|dBAG FDFA|
^cdeg faec|d2Ad BEEB|agfa gfe^c|dBAF DEFA:|

%%%

